X:0312
M:6/8
L:1/8
Q:3/8=120
P:ABCA % Aird uses a da capo
K:G
P:A
d2d d2c|B2B B2A|G2G AGA| B2B B2c       |
d2d d2c|B2B B2A|G2G AGA|(G3 HG3)      :|
P:B
b2b bag|a2d def|g2g gfe| f2B Bcd       |
e2e edc|d2G GAB|cdc BcB| A3  A3       :|
P:C
a2a a2g|f2f f2e|d2d ede| d2d2 G/A/B/c/|]

